X:254
T: WAS SINGT DAS VOEGLEIN KLEINE
N: F0446
O: Europa, Mitteleuropa, Deutschland
R: Heimat -, Wander - Lied
M: 2/4
L: 1/8
K: D
A, | A,F,DA, | F2D
B, | A,F,E,G, | F,3
F, | F,CDC | C2B,z
C2B,A, | F4- | F4- | F2z2
A,2F,D | A,4- | A,2z2 | z3

